X:0979
T:A Highland Reel.
M:C
L:1/8
Q:1/4=128
I: :: :|
Z:Jack Campin * www.campin.me.uk * 2009
K:D
f>AA>A A>FA>A|f>aA>f e>dB<d|f>AA>A B>AF>A|a>ef>d e>dB<d:|
f<ab>a a<fe>d|d<dee  g>ef>e|f<ab>a a<fe>d|g>ef>d B>AB<d:|
<end>
<start>
